src/24/panel/discord-tray-deafened.svg

<svg xmlns="http://www.w3.org/2000/svg" width="24" height="24" version="1.1">
 <defs>
  <style id="current-color-scheme" type="text/css">
   .ColorScheme-Text { color:#dfdfdf; } .ColorScheme-Highlight { color:#4285f4; }
  </style>
 </defs>
 <path style="fill:currentColor" class="ColorScheme-Text" d="M 5.6370626,4.2226561 4.223,5.6367187 6.3987813,7.8124999 C 5.523922,8.9795349 5.0003438,10.425073 5.0003438,12 l 0,4.666016 c 0,0 6.514e-4,2.333984 2.3339844,2.333984 l 2.6660158,0 0,-6 -3.0000002,0 0,-1 c 0,-0.962016 0.3520335,-1.884543 0.90625,-2.679687 l 6.0937502,6.093749 0,3.585938 2.666016,0 c 1.188529,-0.134266 1.660682,-0.749513 2.197265,-1.550783 L 15.457375,14.042969 14.414406,13 Z m 6.3632814,0.7773438 c -1.049255,0 -2.0365592,0.242713 -2.9277346,0.65625 l 1.5781246,1.578125 c 0.435722,-0.1454061 0.887407,-0.234375 1.34961,-0.234375 2.59,0 5,2.4100001 5,5.0000001 l 0,1 -0.585938,0 2.585938,2.585938 0,-3.585938 c 0,-3.8733331 -3.126666,-7.0000001 -7,-7.0000001 z"/>
</svg>

<svg xmlns="http://www.w3.org/2000/svg" width="24" height="24"><defs><style id="current-color-scheme" type="text/css">.ColorScheme-Text{color:#dfdfdf;}.ColorScheme-Highlight{color:#5294e2;}</style></defs><defs><style id="current-color-scheme" type="text/css"></style></defs><path d="M5.637 4.223L4.223 5.637l2.176 2.175A6.952 6.952 0 0 0 5 12v4.666S5.001 19 7.334 19H10v-6H7v-1c0-.962.352-1.885.907-2.68L14 15.414V19h2.666c1.189-.134 1.661-.75 2.198-1.55l-3.407-3.407L14.414 13zM12 5a6.93 6.93 0 0 0-2.927.656l1.578 1.578A4.26 4.26 0 0 1 12 7c2.59 0 5 2.41 5 5v1h-.587L19 15.586V12c0-3.873-3.126-7-7-7z" fill="currentColor" class="ColorScheme-Text"/></svg>
